X:1
T:Title
L:1/8
M:4/4
K:Dmaj
N:going home parteB
 D4 z D/E/ FA | (3d-dd -dd d>c- c/A/F | B3 A/G/ A3 G/F/ | (3G-GA- AG (3F-FD- DA, | 
 B,D-DF E2 z2 |$ de-ed (3c2 A2 F2 | B3 A/G/ A3 G/F/ | G A2 G FD- DA, B,2 z2 | 
DA,DE- EF A/ z/ A |$ AB/c/ BA- A2 A,2 | 